X:1
T: Birnam Hall (Dunkeld)
C:J. Steel
R:Jig
Q:180
K:D
M:6/8
L:1/16
A2|F2G2A2 E2F2G2|F4D2 D4d2|c2d2e2 B2c2d2|c4A2 A4c2|d2c2B2 A2G2F2|G2A2B2 A4A2|F2G2A2 E2F2G2|F4D2 D4A2|
F2G2A2 E2F2G2|F4D2 D4d2|c2d2e2 B2c2d2|c4A2 A4c2|d2c2B2 A2G2F2|G2A2B2 A4A2|F2G2A2 E2F2G2|F4D2 D4A2|
d4A2 F4A2|D2E2F2 A4F2|E4B2 B4A2|B4E2 E4e2|d4A2 F4A2|D2E2F2 A4F2|G2A2B2 E2F2G2|F4D2 D4f2|
a4f2 g4e2|f4d2 e4c2|d4A2 B4F2|G4E2 E4A2|F2G2A2 G2A2B2|A2B2c2 d6|c2B2A2 G2F2E2|F4D2 D4||
